!!!COM: Fe/licien David
!!!CNT: Francais
!!!TXO: Francais
!!!OTL: Les Hirondelles
!!!LYR: Volny L'Hotelier
!!!ENC: Jacob Pegg
!!!YOR: Romantic French Song 1830-1870, David Tunley, ed., New York: Garland Publishing, Inc., 1995
!!!ODT: 1845/
!!NB: Vocal melody and text only encoded.
!!NB: Only first strophe encoded.
**kern	**silbe
*clef G2	*
*k[b-e-]	*
*M3/4	*
=1	=1
2.r	.
=2	=2
2.r	.
=3	=3
{8.dd	{Vol-
16dd	-ti-
4dd	-gez
8cc	hi-
8cc	-ron-
=4	=4
2b-	-del-
4cc	-les,
=5	=5
8.dd	Vol-
16dd	-ti-
4dd	-gez
8.ff	pre\s
16ee-	de
=6	=6
2dd}	moi}
4r	.
=7	=7
{4cc	{Et
8cc	re-
8cc	-po-
8.b-	-sez
16b-	vos
=8	=8
2ee-	ai-
4dd	-les
=9	=9
4cc	Au
8dd	fai-
8ee-	-te
8.ff	des
16gg	tou-
=10	=10
(2gg	-rel-
4ff#)	-les
=11	=11
8.ffn	Sans
16cc	ef-
2cc	-froi,
=12	=12
8.dd	sans
16b-	ef-
2b-	-froi,
=13	=13
2g	sans
(4b-	ef-
fq)	|
=14	=14
[2.f	-froi.
=15	=15
2.f_	|
=16	=16
4f]}	|}
4r	.
4r	.
*-	*-
